X: 32593
T: Planxty Nancy McDermott
R: reel
M: 4/4
K: Adorian
EG|:A2AB c2BA|c2e2 edcB|c2Bc dcBA|G2E2 G2AB|
c2e2 d2g2|e2a2 agee|dcBA cBAG|1 E2A2 A2EG:|2 E2G2 G4||
|:e2a2 a3e|agab a3e|d2ef g3d|gfga g2ed|
e2a2 a3e|agab a3e|edcB dcBA|G2E2 E4:|

